picto/tracks-3-fr-large.svg

<svg class="color-immutable" width="24" height="24" viewBox="0 0 24 24" fill="none" xmlns="http://www.w3.org/2000/svg"><path d="M0 22.5V1.5C0 0.675 0.675 0 1.5 0H22.5C23.325 0 24 0.675 24 1.5V22.5C24 23.325 23.325 24 22.5 24H1.5C0.675 24 0 23.325 0 22.5Z" fill="#2D327D"/><path d="M7.42699 11.781C7.45799 10.674 7.73199 9.745 8.24799 8.994C9.08499 7.788 10.343 7.185 12.022 7.185C13.314 7.185 14.357 7.514 15.15 8.172C16.005 8.886 16.433 9.809 16.433 10.941C16.433 11.618 16.265 12.201 15.93 12.69C15.595 13.179 15.141 13.51 14.569 13.682C15.295 13.848 15.869 14.217 16.29 14.789C16.711 15.361 16.922 16.053 16.922 16.865C16.922 18.2 16.43 19.292 15.445 20.141C14.534 20.929 13.384 21.322 11.994 21.322C10.487 21.322 9.29099 20.888 8.40899 20.021C7.52599 19.154 7.08499 17.981 7.08499 16.505C7.08499 16.474 7.08499 16.416 7.08499 16.33H9.67799C9.67799 17.161 9.87499 17.802 10.269 18.254C10.663 18.706 11.22 18.932 11.939 18.932C12.659 18.932 13.212 18.72 13.6 18.295C13.957 17.895 14.135 17.418 14.135 16.865C14.135 16.201 13.907 15.675 13.452 15.287C13.077 14.967 12.498 14.807 11.717 14.807C11.496 14.807 11.277 14.819 11.062 14.844V12.86C11.222 12.872 11.376 12.878 11.523 12.878C13.073 12.878 13.849 12.303 13.849 11.152C13.849 10.648 13.68 10.24 13.341 9.929C13.003 9.618 12.557 9.463 12.003 9.463C11.369 9.463 10.88 9.66 10.536 10.054C10.191 10.448 10.007 11.023 9.98199 11.78H7.42699V11.781Z" fill="white"/><path d="M5.036 3L4.288 5.249H3.73L2.993 3H3.507L4.013 4.684L4.527 3H5.036Z" fill="white"/><path d="M5.87399 3.523C6.11799 3.523 6.31699 3.604 6.47199 3.766C6.62499 3.926 6.70099 4.139 6.70099 4.406C6.70099 4.682 6.61899 4.902 6.45599 5.066C6.30399 5.218 6.10499 5.295 5.85999 5.295C5.59899 5.295 5.38999 5.21 5.23599 5.04C5.08799 4.877 5.01399 4.667 5.01399 4.409C5.01399 4.155 5.08599 3.948 5.22899 3.789C5.38899 3.612 5.60299 3.523 5.87399 3.523ZM5.85099 3.871C5.73299 3.871 5.63899 3.919 5.56999 4.014C5.49899 4.11 5.46299 4.242 5.46299 4.409C5.46299 4.582 5.49799 4.715 5.56799 4.807C5.63999 4.9 5.73799 4.947 5.86199 4.947C5.97799 4.947 6.06999 4.904 6.13699 4.819C6.21399 4.725 6.25199 4.588 6.25199 4.408C6.25199 4.24 6.21799 4.109 6.14999 4.016C6.07999 3.919 5.97999 3.871 5.85099 3.871Z" fill="white"/><path d="M7.44899 3V3.401H7.00299V3H7.44899ZM7.44899 3.572V5.249H7.00299V3.572H7.44899Z" fill="white"/><path d="M9.32099 4.726C9.29699 4.82 9.25499 4.909 9.19299 4.992C9.04499 5.194 8.83299 5.295 8.55599 5.295C8.30599 5.295 8.10499 5.216 7.95499 5.058C7.88099 4.981 7.82499 4.888 7.78599 4.78C7.74399 4.664 7.72299 4.543 7.72299 4.417C7.72299 4.173 7.79299 3.968 7.93399 3.802C8.09099 3.616 8.29399 3.524 8.54299 3.524C8.74399 3.524 8.91499 3.586 9.05699 3.71C9.15899 3.799 9.23199 3.909 9.27799 4.04C9.32399 4.171 9.34699 4.335 9.34699 4.533H8.17699C8.18099 4.615 8.19399 4.683 8.21499 4.738C8.27499 4.885 8.38999 4.958 8.55999 4.958C8.64299 4.958 8.71099 4.94 8.76299 4.903C8.81499 4.867 8.85799 4.808 8.89199 4.727H9.32099V4.726ZM8.89199 4.232C8.88399 4.151 8.86499 4.084 8.83599 4.031C8.80799 3.978 8.76699 3.937 8.71399 3.906C8.66099 3.875 8.60399 3.86 8.54099 3.86C8.44199 3.86 8.35999 3.893 8.29499 3.96C8.22999 4.026 8.19199 4.117 8.17999 4.232H8.89199Z" fill="white"/></svg>

<svg class="color-immutable" width="24" height="24" viewBox="0 0 24 24" fill="none" xmlns="http://www.w3.org/2000/svg"><g clip-path="url(#a)"><path d="M0 22.5v-21C0 .675.675 0 1.5 0h21c.825 0 1.5.675 1.5 1.5v21c0 .825-.675 1.5-1.5 1.5h-21C.675 24 0 23.325 0 22.5Z" fill="#2D327D"/><path d="M7.427 11.781c.031-1.107.305-2.036.821-2.787.837-1.206 2.095-1.809 3.774-1.809 1.292 0 2.335.329 3.128.987.855.714 1.283 1.637 1.283 2.769 0 .677-.168 1.26-.503 1.749-.335.489-.789.82-1.361.992.726.166 1.3.535 1.721 1.107.421.572.632 1.264.632 2.076 0 1.335-.492 2.427-1.477 3.276-.911.788-2.061 1.181-3.451 1.181-1.507 0-2.703-.434-3.585-1.301-.883-.867-1.324-2.04-1.324-3.516v-.175h2.593c0 .831.197 1.472.591 1.924.394.452.951.678 1.67.678.72 0 1.273-.212 1.661-.637.357-.4.535-.877.535-1.43 0-.664-.228-1.19-.683-1.578-.375-.32-.954-.48-1.735-.48-.221 0-.44.012-.655.037V12.86c.16.012.314.018.461.018 1.55 0 2.326-.575 2.326-1.726 0-.504-.169-.912-.508-1.223-.338-.311-.784-.466-1.338-.466-.634 0-1.123.197-1.467.591-.345.394-.529.969-.554 1.726H7.427v.001ZM5.036 3l-.748 2.249H3.73L2.993 3h.514l.506 1.684L4.527 3h.509ZM5.874 3.523a.79.79 0 0 1 .598.243c.153.16.229.373.229.64 0 .276-.082.496-.245.66a.807.807 0 0 1-.596.229c-.261 0-.47-.085-.624-.255-.148-.163-.222-.373-.222-.631 0-.254.072-.461.215-.62.16-.177.374-.266.645-.266Zm-.023.348a.33.33 0 0 0-.281.143.652.652 0 0 0-.107.395c0 .173.035.306.105.398.072.093.17.14.294.14a.332.332 0 0 0 .275-.128c.077-.094.115-.231.115-.411 0-.168-.034-.299-.102-.392a.347.347 0 0 0-.299-.145ZM7.449 3v.401h-.446V3h.446Zm0 .572v1.677h-.446V3.572h.446ZM9.321 4.726a.752.752 0 0 1-.128.266c-.148.202-.36.303-.637.303-.25 0-.451-.079-.601-.237a.775.775 0 0 1-.169-.278 1.058 1.058 0 0 1-.063-.363c0-.244.07-.449.211-.615a.76.76 0 0 1 .609-.278.754.754 0 0 1 .735.516c.046.131.069.295.069.493h-1.17c.004.082.017.15.038.205.06.147.175.22.345.22a.343.343 0 0 0 .203-.055.39.39 0 0 0 .129-.176h.429v-.001Zm-.429-.494a.525.525 0 0 0-.056-.201.334.334 0 0 0-.295-.171.328.328 0 0 0-.246.1.44.44 0 0 0-.115.272h.712Z" fill="#fff"/></g><defs><clipPath id="a"><path fill="#fff" d="M0 0h24v24H0z"/></clipPath></defs></svg>
